src/view/frontend/web/svg/heroicons/outline/cube.svg

<svg xmlns="http://www.w3.org/2000/svg" fill="none" stroke="currentColor" viewBox="0 0 24 24"><path stroke-linecap="round" stroke-linejoin="round" stroke-width="2" d="m20 7-8-4-8 4m16 0-8 4m8-4v10l-8 4m0-10L4 7m8 4v10M4 7v10l8 4"/></svg>

<svg  viewBox="0 0 24 24" fill="none" stroke="currentColor" xmlns="http://www.w3.org/2000/svg">
<path d="M20 7L12 3L4 7M20 7L12 11M20 7V17L12 21M12 11L4 7M12 11V21M4 7V17L12 21"  stroke-width="2" stroke-linecap="round" stroke-linejoin="round"/>
</svg>
